Yaru++/emotes/16/face-raspberry.svg

<svg height="16" width="16" xmlns="http://www.w3.org/2000/svg"><path d="m8 0a8 8 0 1 0 0 16 8 8 0 0 0 0-16zm-2.2857143 4.5714286c.6377143 0 1.1782857.5405714 1.1782857 1.1782857v1.1074286c0 .6377142-.5405714 1.1428571-1.1782857 1.1428571s-1.1428571-.5051429-1.1428571-1.1428571v-1.1074286c0-.6377143.5051428-1.1782857 1.1428571-1.1782857zm4.5714283 0c.637715 0 1.142857.5405714 1.142857 1.1782857v1.1074286c0 .6377142-.505142 1.1428571-1.142857 1.1428571-.637714 0-1.142857-.5051429-1.142857-1.1428571v-1.1074286c0-.6377143.505143-1.1782857 1.142857-1.1782857zm-7.9999997 4.6434285c1.1394286.7268572 4.5897143 1.0708569 5.7142857 1.0708569.5622857 0 1.633143.01714 2.749714-.107428 1.117715-.123429 2.281143-.4114289 2.964572-.9634289v.5714286c0 .5040003-.860572 1.0502853-2.464 1.3565713l.285714.606857c.318857.690286.094857 1.458286-.500571 1.750857l-.285715.142858c-.594285.291428-1.342857-.03429-1.678857-.714286l-.7131427-1.465143c-.020571-.03886-.022857-.04-.036571-.07086h-.3211433c-3.7211429 0-5.7142857-.998857-5.7142857-1.6068573z" fill="#fdc92b" stroke-width="1.142857"/><path d="m8.2421875 10.96875h.0390625c.012.027.01325.0285.03125.0625l.625 1.28125c.147.2975.3829375.517109.6484375.630859s.5603125.121641.8203125-.0059l.25-.125c.2605-.128.440281-.359266.519531-.634766s.05747-.594484-.08203-.896484l-.111329-.236287-.173828-.294922c.01493.0041.0282.01306.04297.01758l-.007814-.01758c.0033-.000637.0045-.0013.0078-.002a2.9441256 2.4135832 0 0 0 -1.0312375-.160109 2.9441256 2.4135832 0 0 0 -1.578125.380859z" fill="#f22c42" stroke-width="1.23188" transform="matrix(1.1428571 0 0 1.1428571 -1.14285856223 -1.14285653608)"/><g stroke-width="1.142857"><path d="m8 0a8 8 0 0 0 -7.9866071 8.3482143 8 8 0 0 1 7.9866071-7.77678573 8 8 0 0 1 7.986607 7.65178573 8 8 0 0 0 -7.986607-8.2232143zm-3.4285714 6.8571429v.5714285c0 .6377143.5051428 1.1428572 1.1428571 1.1428572s1.1785714-.5051429 1.1785714-1.1428572v-.5714285c0 .6377142-.5408571 1.1428571-1.1785714 1.1428571s-1.1428571-.5051429-1.1428571-1.1428571zm4.5714284 0v.5714285c0 .6377143.505143 1.1428572 1.142857 1.1428572.637715 0 1.142857-.5051429 1.142857-1.1428572v-.5714285c0 .6377142-.505142 1.1428571-1.142857 1.1428571-.637714 0-1.142857-.5051429-1.142857-1.1428571zm-6.8571427 2.9285714v.5714287c0 .608 1.9931428 1.607143 5.7142857 1.607143h.3214286c.013714.03086.015143.03257.035714.07143l.7142864 1.464284c.336.68 1.084285 1.005714 1.678571.714286l.285714-.142857c.488593-.240077.706769-.800298.600447-1.375-.07833.347206-.279593.645915-.600447.803571l-.285714.142857c-.594286.291429-1.342571-.03429-1.678571-.714286l-.7142861-1.464285c-.020571-.03886-.022-.04057-.035714-.07143h-.3214289c-3.7211429 0-5.7142857-.999143-5.7142857-1.6071427zm11.4285717 0c0 .5039997-.860857 1.0508567-2.464286 1.3571427l.241072.511161c1.432793-.313733 2.223214-.821435 2.223214-1.296875z" fill="#fffdf7" opacity=".3"/><path d="m5.7142857 4c-.6377143 0-1.1428571.5408571-1.1428571 1.1785714v.5714286c0-.6377143.5051428-1.1785714 1.1428571-1.1785714s1.1785714.5408571 1.1785714 1.1785714v-.5714286c0-.6377143-.5408571-1.1785714-1.1785714-1.1785714zm4.5714283 0c-.637714 0-1.142857.5408571-1.142857 1.1785714v.5714286c0-.6377143.505143-1.1785714 1.142857-1.1785714.637715 0 1.142857.5408571 1.142857 1.1785714v-.5714286c0-.6377143-.505142-1.1785714-1.142857-1.1785714zm5.700893 3.6517857a8 8 0 0 1 -7.986607 7.7767853 8 8 0 0 1 -7.9866071-7.6517853 8 8 0 0 0 7.9866071 8.2232143 8 8 0 0 0 7.986607-8.3482143zm-13.7008927.9910714v.5714286c1.1394286.7268572 4.5897143 1.0714283 5.7142857 1.0714283.5622857 0 1.633429.01743 2.75-.107143 1.117714-.123428 2.280857-.4122853 2.964286-.9642853v-.5714286c-.683429.552-1.846572.8408572-2.964286.9642858-1.116571.1245714-2.1877143.1071428-2.75.1071428-1.1245714 0-4.5748571-.3445714-5.7142857-1.0714286zm9.2053577 2.4397329c-.08607.01885-.150213.04291-.241072.06027l.285714.60714c.05721.123855.0772.249337.100447.375.06703-.297128.04659-.628111-.100447-.946429z" fill="#090700" opacity=".2"/></g></svg>

<?xml version="1.0" encoding="UTF-8" standalone="no"?>
<svg
   xmlns:dc="http://purl.org/dc/elements/1.1/"
   xmlns:cc="http://creativecommons.org/ns#"
   xmlns:rdf="http://www.w3.org/1999/02/22-rdf-syntax-ns#"
   xmlns:svg="http://www.w3.org/2000/svg"
   xmlns="http://www.w3.org/2000/svg"
   xmlns:sodipodi="http://sodipodi.sourceforge.net/DTD/sodipodi-0.dtd"
   xmlns:inkscape="http://www.inkscape.org/namespaces/inkscape"
   width="16"
   height="16"
   version="1.1"
   id="svg4"
   sodipodi:docname="face-raspberry.svg"
   inkscape:version="0.92.4 (5da689c313, 2019-01-14)">
  <metadata
     id="metadata10">
    <rdf:RDF>
      <cc:Work
         rdf:about="">
        <dc:format>image/svg+xml</dc:format>
        <dc:type
           rdf:resource="http://purl.org/dc/dcmitype/StillImage" />
      </cc:Work>
    </rdf:RDF>
  </metadata>
  <defs
     id="defs8" />
  <sodipodi:namedview
     pagecolor="#ffffff"
     bordercolor="#666666"
     borderopacity="1"
     objecttolerance="10"
     gridtolerance="10"
     guidetolerance="10"
     inkscape:pageopacity="0"
     inkscape:pageshadow="2"
     inkscape:window-width="1920"
     inkscape:window-height="1016"
     id="namedview6"
     showgrid="false"
     inkscape:zoom="59.928571"
     inkscape:cx="4.829559"
     inkscape:cy="8"
     inkscape:window-x="0"
     inkscape:window-y="27"
     inkscape:window-maximized="1"
     inkscape:current-layer="svg4" />
  <path
     d="M 8,0 A 8,8 0 1 0 8,16 8,8 0 0 0 8,0 Z M 5.7142857,4.5714286 C 6.352,4.5714286 6.8925714,5.112 6.8925714,5.7497143 V 6.8571429 C 6.8925714,7.4948571 6.352,8 5.7142857,8 5.0765714,8 4.5714286,7.4948571 4.5714286,6.8571429 V 5.7497143 c 0,-0.6377143 0.5051428,-1.1782857 1.1428571,-1.1782857 z m 4.5714283,0 c 0.637715,0 1.142857,0.5405714 1.142857,1.1782857 V 6.8571429 C 11.428571,7.4948571 10.923429,8 10.285714,8 9.648,8 9.142857,7.4948571 9.142857,6.8571429 V 5.7497143 C 9.142857,5.112 9.648,4.5714286 10.285714,4.5714286 Z M 2.2857143,9.2148571 C 3.4251429,9.9417143 6.8754286,10.285714 8,10.285714 c 0.5622857,0 1.633143,0.01714 2.749714,-0.107428 1.117715,-0.123429 2.281143,-0.4114289 2.964572,-0.9634289 v 0.5714286 c 0,0.5040003 -0.860572,1.0502853 -2.464,1.3565713 L 11.536,11.749714 C 11.854857,12.44 11.630857,13.208 11.035429,13.500571 l -0.285715,0.142858 C 10.155429,13.934857 9.406857,13.609139 9.070857,12.929143 L 8.3577143,11.464 c -0.020571,-0.03886 -0.022857,-0.04 -0.036571,-0.07086 H 8 c -3.7211429,0 -5.7142857,-0.998857 -5.7142857,-1.6068573 z"
     id="path2"
     style="fill:#fdc92b;fill-opacity:1;stroke-width:1.14285719"
     inkscape:connector-curvature="0" />
  <g
     id="g831"
     transform="matrix(1.1428571,0,0,1.1428571,-27.564165,-4.0096853)">
    <path
       style="opacity:1;fill:#f22c42;fill-opacity:1;stroke-width:1.23187971"
       d="M 8.2421875,10.96875 H 8.28125 c 0.012,0.027 0.01325,0.0285 0.03125,0.0625 l 0.625,1.28125 c 0.147,0.2975 0.3829375,0.517109 0.6484375,0.630859 0.2655,0.11375 0.5603125,0.121641 0.8203125,-0.0059 l 0.25,-0.125 c 0.2605,-0.128 0.440281,-0.359266 0.519531,-0.634766 0.07925,-0.2755 0.05747,-0.594484 -0.08203,-0.896484 L 10.982422,11.044922 10.808594,10.75 c 0.01493,0.0041 0.0282,0.01306 0.04297,0.01758 L 10.84375,10.75 c 0.0033,-6.37e-4 0.0045,-0.0013 0.0078,-0.002 A 2.9441256,2.4135832 0 0 0 9.8203125,10.587891 2.9441256,2.4135832 0 0 0 8.2421875,10.96875 Z"
       id="path855"
       transform="translate(23.118644,2.5084746)"
       inkscape:connector-curvature="0" />
  </g>
  <path
     style="opacity:0.3;fill:#fffdf7;fill-opacity:1;stroke-width:1.14285719"
     d="M 8,0 A 8,8 0 0 0 0.0133929,8.3482143 8,8 0 0 1 8,0.57142857 8,8 0 0 1 15.986607,8.2232143 8,8 0 0 0 8,0 Z M 4.5714286,6.8571429 v 0.5714285 c 0,0.6377143 0.5051428,1.1428572 1.1428571,1.1428572 0.6377143,0 1.1785714,-0.5051429 1.1785714,-1.1428572 V 6.8571429 C 6.8928571,7.4948571 6.352,8 5.7142857,8 5.0765714,8 4.5714286,7.4948571 4.5714286,6.8571429 Z m 4.5714284,0 v 0.5714285 c 0,0.6377143 0.505143,1.1428572 1.142857,1.1428572 0.637715,0 1.142857,-0.5051429 1.142857,-1.1428572 V 6.8571429 C 11.428571,7.4948571 10.923429,8 10.285714,8 9.648,8 9.142857,7.4948571 9.142857,6.8571429 Z M 2.2857143,9.7857143 v 0.5714287 c 0,0.608 1.9931428,1.607143 5.7142857,1.607143 h 0.3214286 c 0.013714,0.03086 0.015143,0.03257 0.035714,0.07143 L 9.071429,13.5 c 0.336,0.68 1.084285,1.005714 1.678571,0.714286 l 0.285714,-0.142857 c 0.488593,-0.240077 0.706769,-0.800298 0.600447,-1.375 -0.07833,0.347206 -0.279593,0.645915 -0.600447,0.803571 L 10.75,13.642857 C 10.155714,13.934286 9.407429,13.608567 9.071429,12.928571 L 8.3571429,11.464286 c -0.020571,-0.03886 -0.022,-0.04057 -0.035714,-0.07143 H 8 c -3.7211429,0 -5.7142857,-0.999143 -5.7142857,-1.6071427 z m 11.4285717,0 c 0,0.5039997 -0.860857,1.0508567 -2.464286,1.3571427 l 0.241072,0.511161 c 1.432793,-0.313733 2.223214,-0.821435 2.223214,-1.296875 z"
     id="path852"
     inkscape:connector-curvature="0" />
  <path
     style="opacity:0.2;fill:#090700;fill-opacity:1;stroke-width:1.14285719"
     d="M 5.7142857,4 C 5.0765714,4 4.5714286,4.5408571 4.5714286,5.1785714 V 5.75 c 0,-0.6377143 0.5051428,-1.1785714 1.1428571,-1.1785714 0.6377143,0 1.1785714,0.5408571 1.1785714,1.1785714 V 5.1785714 C 6.8928571,4.5408571 6.352,4 5.7142857,4 Z M 10.285714,4 C 9.648,4 9.142857,4.5408571 9.142857,5.1785714 V 5.75 c 0,-0.6377143 0.505143,-1.1785714 1.142857,-1.1785714 0.637715,0 1.142857,0.5408571 1.142857,1.1785714 V 5.1785714 C 11.428571,4.5408571 10.923429,4 10.285714,4 Z m 5.700893,3.6517857 A 8,8 0 0 1 8,15.428571 8,8 0 0 1 0.0133929,7.7767857 8,8 0 0 0 8,16 8,8 0 0 0 15.986607,7.6517857 Z M 2.2857143,8.6428571 V 9.2142857 C 3.4251429,9.9411429 6.8754286,10.285714 8,10.285714 c 0.5622857,0 1.633429,0.01743 2.75,-0.107143 1.117714,-0.123428 2.280857,-0.4122853 2.964286,-0.9642853 V 8.6428571 C 13.030857,9.1948571 11.867714,9.4837143 10.75,9.6071429 9.633429,9.7317143 8.5622857,9.7142857 8,9.7142857 c -1.1245714,0 -4.5748571,-0.3445714 -5.7142857,-1.0714286 z M 11.491072,11.08259 C 11.405002,11.10144 11.340859,11.1255 11.25,11.14286 L 11.535714,11.75 c 0.05721,0.123855 0.0772,0.249337 0.100447,0.375 0.06703,-0.297128 0.04659,-0.628111 -0.100447,-0.946429 z"
     id="path857"
     inkscape:connector-curvature="0" />
</svg>
